src/images_karasa_jaga_svg/cmd/32/morphing.svg

<svg height="32" viewBox="0 0 32 32" width="32" xmlns="http://www.w3.org/2000/svg" xmlns:xlink="http://www.w3.org/1999/xlink"><linearGradient id="a" gradientTransform="matrix(.76189483 0 0 1.0158609 -3.046726 -19.300523)" gradientUnits="userSpaceOnUse" x1="119.57646" x2="15.999996" y1="23.792561" y2="109.6508"><stop offset="0" stop-color="#fff"/><stop offset=".42597079" stop-color="#fff"/><stop offset=".5892781" stop-color="#e5e5e5"/><stop offset=".80219781" stop-color="#eaeaea"/><stop offset="1" stop-color="#eee"/></linearGradient><linearGradient id="b"><stop offset="0" stop-color="#fff"/><stop offset="1" stop-color="#fff" stop-opacity="0"/></linearGradient><linearGradient id="c" gradientTransform="matrix(.09253752 0 0 .14870594 -6.00486 -81.716489)" gradientUnits="userSpaceOnUse" x1="399.77466" x2="399.77466" y1="1164.6696" y2="549.06134"><stop offset="0" stop-color="#717174"/><stop offset=".5" stop-color="#9c9ca1"/><stop offset="1" stop-color="#bdbdc2"/></linearGradient><linearGradient id="d" gradientTransform="matrix(0 -1.8256937 -2.2856842 0 113.52307 200.15701)" gradientUnits="userSpaceOnUse" x1="102.31124" x2="74.330322" xlink:href="#b" y1="-5.830213" y2="32"/><linearGradient id="e" gradientTransform="matrix(.09253752 0 0 .14870594 -6.00486 -81.716489)" gradientUnits="userSpaceOnUse" x1="399.77466" x2="399.77466" y1="1164.6696" y2="549.06134"><stop offset="0" stop-color="#a9cbfc"/><stop offset="1" stop-color="#aecffc"/></linearGradient><linearGradient id="f" gradientTransform="matrix(0 -1.3692663 -1.7142582 0 93.141434 155.38722)" gradientUnits="userSpaceOnUse" x1="102.31124" x2="74.330322" xlink:href="#b" y1="-5.830213" y2="32"/><linearGradient id="g" gradientTransform="matrix(.09253752 0 0 .14870594 -6.00486 -81.716489)" gradientUnits="userSpaceOnUse" x1="399.77466" x2="399.77466" y1="1164.6696" y2="549.06134"><stop offset="0" stop-color="#0968ef"/><stop offset="1" stop-color="#aecffc"/></linearGradient><linearGradient id="h" gradientTransform="matrix(0 -1.3692663 -1.7142582 0 117.14143 179.38722)" gradientUnits="userSpaceOnUse" x1="102.31124" x2="74.330322" xlink:href="#b" y1="-5.830213" y2="32"/><g transform="scale(.25)"><rect fill="url(#e)" height="96.000275" rx="48.000137" transform="matrix(0 .74999785 .74999785 0 7.999376 5.269894)" width="96.000275" x="-1.693196" y="-5.332516"/><rect fill="url(#a)" fill-rule="evenodd" height="85.333572" rx="42.666786" transform="matrix(0 .74999785 .74999785 0 7.999376 5.269894)" width="85.333572" x="3.640153" y=".000833"/><path d="m62.390625 17.105469c-14.818566 4.996698-35.093965 7.256789-51.191406 8.894531-2.0489401 4.224932-3.199219 8.97249-3.199219 14 0 7.405427 2.497077 14.202341 6.689453 19.613281 19.04403-7.938643 41.719001-18.380973 55.560547-30.08789-1.635275-4.750606-4.349728-8.987483-7.859375-12.419922z" fill="url(#f)" fill-rule="evenodd"/><rect fill="url(#g)" height="96.000275" rx="21.333391" ry="21.333395" transform="matrix(0 .74999785 .74999785 0 31.999376 29.269894)" width="96.000275" x="-1.693196" y="-5.332516"/><g fill-rule="evenodd"><rect fill="url(#a)" height="85.333572" rx="16.00004" ry="16.000046" transform="matrix(0 .74999785 .74999785 0 31.999376 29.269894)" width="85.333572" x="3.640153" y=".000833"/><path d="m94.318359 37.880859c-15.55673 7.749044-42.786401 10.471012-62.318359 12.44336v33.675781c0 .781357.07942 1.542284.220703 2.28125 20.897477-8.50121 48.638324-20.576856 63.779297-34.28125v-8c0-2.241587-.620169-4.327729-1.681641-6.119141z" fill="url(#h)"/><rect fill="url(#a)" height="85.333572" rx="16.00004" ry="16.000046" transform="matrix(0 .74999785 .74999785 0 31.999376 29.269894)" width="85.333572" x="3.640153" y=".000833"/></g><g transform="matrix(.74999785 0 0 .74999785 55.99938 53.269898)"><rect fill="url(#c)" height="96.000275" rx="3.628262" ry="4.219727" transform="matrix(0 1 1 0 0 0)" width="96.000275" x="-1.693196" y="-5.332516"/><g fill-rule="evenodd"><rect fill="url(#a)" height="85.333572" rx="1.687967" ry="2.031721" transform="matrix(0 1 1 0 0 0)" width="85.333572" x="3.640153" y=".000833"/><path d="m85.334421 30.306916c-21.549668 19.505031-62.383021 36.60947-90.6669249 48.000136v-49.693172c27.0784589-2.783233 69.0653259-6.329791 90.6669249-18.306964z" fill="url(#d)"/></g></g></g></svg>

<?xml version="1.0" encoding="UTF-8" standalone="no"?>
<!-- Created with Inkscape (http://www.inkscape.org/) -->

<svg
   xmlns:dc="http://purl.org/dc/elements/1.1/"
   xmlns:cc="http://creativecommons.org/ns#"
   xmlns:rdf="http://www.w3.org/1999/02/22-rdf-syntax-ns#"
   xmlns:svg="http://www.w3.org/2000/svg"
   xmlns="http://www.w3.org/2000/svg"
   xmlns:xlink="http://www.w3.org/1999/xlink"
   xmlns:sodipodi="http://sodipodi.sourceforge.net/DTD/sodipodi-0.dtd"
   xmlns:inkscape="http://www.inkscape.org/namespaces/inkscape"
   version="1.1"
   id="svg2"
   width="128"
   height="128"
   viewBox="0 0 128 128"
   sodipodi:docname="morphing.svg"
   inkscape:version="0.92.3 (2405546, 2018-03-11)"
   inkscape:export-filename="/home/rizmut/Documents/Rizmut/Github/libreoffice-style-karasa-jaga/build/images_karasa_jaga/cmd/32/morphing.png"
   inkscape:export-xdpi="24"
   inkscape:export-ydpi="24">
  <metadata
     id="metadata8">
    <rdf:RDF>
      <cc:Work
         rdf:about="">
        <dc:format>image/svg+xml</dc:format>
        <dc:type
           rdf:resource="http://purl.org/dc/dcmitype/StillImage" />
        <dc:title></dc:title>
      </cc:Work>
    </rdf:RDF>
  </metadata>
  <defs
     id="defs6">
    <linearGradient
       id="linearGradient4112">
      <stop
         id="stop4114"
         offset="0"
         style="stop-color:#bbf10e;stop-opacity:1" />
      <stop
         id="stop4116"
         offset="1"
         style="stop-color:#5f9207;stop-opacity:1" />
    </linearGradient>
    <linearGradient
       id="linearGradient4105">
      <stop
         id="stop4107"
         offset="0"
         style="stop-color:#033a13;stop-opacity:1" />
      <stop
         id="stop4109"
         offset="1"
         style="stop-color:#398c37;stop-opacity:1" />
    </linearGradient>
    <linearGradient
       inkscape:collect="always"
       xlink:href="#linearGradient4373"
       id="linearGradient10248"
       gradientUnits="userSpaceOnUse"
       gradientTransform="matrix(0.17638886,0,0,0.17638871,11.288891,263.13331)"
       x1="122.70804"
       y1="2.1668341"
       x2="132"
       y2="37.94305" />
    <linearGradient
       id="linearGradient4373">
      <stop
         id="stop4375"
         style="stop-color:#717174;stop-opacity:1"
         offset="0" />
      <stop
         id="stop4377"
         style="stop-color:#9c9ca1;stop-opacity:1"
         offset="0.5" />
      <stop
         id="stop4379"
         style="stop-color:#bdbdc2;stop-opacity:1"
         offset="1" />
    </linearGradient>
    <linearGradient
       id="linearGradient2431">
      <stop
         id="stop2433"
         style="stop-color:#ffffff;stop-opacity:1"
         offset="0" />
      <stop
         id="stop2435"
         style="stop-color:#ffffff;stop-opacity:1"
         offset="0.42597079" />
      <stop
         id="stop2437"
         style="stop-color:#e5e5e5;stop-opacity:1"
         offset="0.5892781" />
      <stop
         id="stop2439"
         style="stop-color:#eaeaea;stop-opacity:1"
         offset="0.80219781" />
      <stop
         id="stop2441"
         style="stop-color:#eeeeee;stop-opacity:1"
         offset="1" />
    </linearGradient>
    <linearGradient
       id="linearGradient3310">
      <stop
         id="stop3312"
         style="stop-color:#ffffff;stop-opacity:1"
         offset="0" />
      <stop
         id="stop3314"
         style="stop-color:#ffffff;stop-opacity:0"
         offset="1" />
    </linearGradient>
    <linearGradient
       id="linearGradient7422-6">
      <stop
         style="stop-color:#b4b4b6;stop-opacity:1;"
         offset="0"
         id="stop7424-3" />
      <stop
         id="stop5367"
         offset="0.5"
         style="stop-color:#9c9ca1;stop-opacity:1;" />
      <stop
         id="stop7426-2"
         offset="1"
         style="stop-color:#cdcdd1;stop-opacity:1;" />
    </linearGradient>
    <linearGradient
       x1="399.77466"
       y1="1164.6696"
       x2="399.77466"
       y2="549.06134"
       id="linearGradient5501-5"
       xlink:href="#linearGradient4373"
       gradientUnits="userSpaceOnUse"
       gradientTransform="matrix(0.09253752,0,0,0.14870594,-6.0048599,-81.716489)" />
    <linearGradient
       x1="119.57646"
       y1="23.792561"
       x2="15.999996"
       y2="109.6508"
       id="linearGradient5503-3"
       xlink:href="#linearGradient2431"
       gradientUnits="userSpaceOnUse"
       gradientTransform="matrix(0.76189483,0,0,1.0158609,-3.0467262,-19.300523)" />
    <linearGradient
       x1="102.31124"
       y1="-5.8302126"
       x2="74.330322"
       y2="32"
       id="linearGradient5505-2"
       xlink:href="#linearGradient3310"
       gradientUnits="userSpaceOnUse"
       gradientTransform="matrix(0,-1.8256937,-2.2856842,0,113.52307,200.15701)" />
    <linearGradient
       inkscape:collect="always"
       xlink:href="#linearGradient2399"
       id="linearGradient2926"
       gradientUnits="userSpaceOnUse"
       gradientTransform="matrix(0.09253752,0,0,0.14870594,-6.0048599,-81.716489)"
       x1="399.77466"
       y1="1164.6696"
       x2="399.77466"
       y2="549.06134" />
    <linearGradient
       inkscape:collect="always"
       xlink:href="#linearGradient2431"
       id="linearGradient2928"
       gradientUnits="userSpaceOnUse"
       gradientTransform="matrix(0.76189483,0,0,1.0158609,-3.0467262,-19.300523)"
       x1="119.57646"
       y1="23.792561"
       x2="15.999996"
       y2="109.6508" />
    <linearGradient
       inkscape:collect="always"
       xlink:href="#linearGradient3310"
       id="linearGradient2930"
       gradientUnits="userSpaceOnUse"
       gradientTransform="matrix(0,-1.3692663,-1.7142582,0,93.141434,155.38722)"
       x1="102.31124"
       y1="-5.8302126"
       x2="74.330322"
       y2="32" />
    <linearGradient
       inkscape:collect="always"
       xlink:href="#linearGradient2399-5-5"
       id="linearGradient859"
       gradientUnits="userSpaceOnUse"
       gradientTransform="matrix(0.09253752,0,0,0.14870594,-6.0048599,-81.716489)"
       x1="399.77466"
       y1="1164.6696"
       x2="399.77466"
       y2="549.06134" />
    <linearGradient
       inkscape:collect="always"
       xlink:href="#linearGradient2431"
       id="linearGradient861"
       gradientUnits="userSpaceOnUse"
       gradientTransform="matrix(0.76189483,0,0,1.0158609,-3.0467262,-19.300523)"
       x1="119.57646"
       y1="23.792561"
       x2="15.999996"
       y2="109.6508" />
    <linearGradient
       inkscape:collect="always"
       xlink:href="#linearGradient3310"
       id="linearGradient863"
       gradientUnits="userSpaceOnUse"
       gradientTransform="matrix(0,-1.3692663,-1.7142582,0,117.14143,179.38722)"
       x1="102.31124"
       y1="-5.8302126"
       x2="74.330322"
       y2="32" />
    <linearGradient
       id="linearGradient2399">
      <stop
         id="stop2401"
         style="stop-color:#a9cbfc;stop-opacity:1"
         offset="0" />
      <stop
         id="stop2403"
         style="stop-color:#aecffc;stop-opacity:1"
         offset="1" />
    </linearGradient>
    <linearGradient
       id="linearGradient2399-5-5">
      <stop
         id="stop2401-5-5"
         offset="0"
         style="stop-color:#0968ef;stop-opacity:1;" />
      <stop
         id="stop2403-6-4"
         offset="1"
         style="stop-color:#aecffc;stop-opacity:1;" />
    </linearGradient>
  </defs>
  <sodipodi:namedview
     pagecolor="#ffffff"
     bordercolor="#666666"
     borderopacity="1"
     objecttolerance="10"
     gridtolerance="10"
     guidetolerance="10"
     inkscape:pageopacity="0"
     inkscape:pageshadow="2"
     inkscape:window-width="1366"
     inkscape:window-height="696"
     id="namedview4"
     showgrid="true"
     inkscape:snap-page="true"
     inkscape:zoom="1.2222452"
     inkscape:cx="184.36054"
     inkscape:cy="20.356306"
     inkscape:window-x="0"
     inkscape:window-y="0"
     inkscape:window-maximized="1"
     inkscape:current-layer="g1015"
     inkscape:snap-global="true">
    <inkscape:grid
       type="xygrid"
       id="grid977"
       spacingx="4"
       spacingy="4"
       empspacing="1" />
  </sodipodi:namedview>
  <g
     id="g1015">
    <g
       id="g2924"
       transform="matrix(0.74999785,0,0,0.74999785,7.9993756,5.2698935)">
      <rect
         style="opacity:1;fill:url(#linearGradient2926);fill-opacity:1;fill-rule:nonzero;stroke:none;stroke-width:18.2854805;stroke-linecap:round;stroke-linejoin:round;stroke-miterlimit:4;stroke-dasharray:none;stroke-dashoffset:4;stroke-opacity:1"
         id="rect2918"
         transform="matrix(0,1,1,0,0,0)"
         y="-5.3325162"
         x="-1.6931961"
         ry="48.000137"
         rx="48.000137"
         height="96.000275"
         width="96.000275" />
      <rect
         style="fill:url(#linearGradient2928);fill-opacity:1;fill-rule:evenodd;stroke:none;stroke-width:73.141922;stroke-linecap:round;stroke-linejoin:round;stroke-miterlimit:4;stroke-dasharray:none;stroke-opacity:1"
         id="rect2920"
         transform="matrix(0,1,1,0,0,0)"
         y="0.00083250634"
         x="3.6401525"
         ry="42.666786"
         rx="42.666786"
         height="85.333572"
         width="85.333572" />
      <path
         style="fill:url(#linearGradient2930);fill-opacity:1;fill-rule:evenodd;stroke:none;stroke-width:6.85703564px;stroke-linecap:butt;stroke-linejoin:miter;stroke-opacity:1"
         d="M 62.390625 17.105469 C 47.572059 22.102167 27.29666 24.362258 11.199219 26 C 9.1502789 30.224932 8 34.97249 8 40 C 8 47.405427 10.497077 54.202341 14.689453 59.613281 C 33.733483 51.674638 56.408454 41.232308 70.25 29.525391 C 68.614725 24.774785 65.900272 20.537908 62.390625 17.105469 z "
         transform="matrix(1.3333372,0,0,1.3333372,-10.665865,-7.0265448)"
         id="path2922" />
    </g>
    <g
       id="g857"
       transform="matrix(0.74999785,0,0,0.74999785,31.999376,29.269894)">
      <rect
         style="opacity:1;fill:url(#linearGradient859);fill-opacity:1;fill-rule:nonzero;stroke:none;stroke-width:18.2854805;stroke-linecap:round;stroke-linejoin:round;stroke-miterlimit:4;stroke-dasharray:none;stroke-dashoffset:4;stroke-opacity:1"
         id="rect851"
         transform="matrix(0,1,1,0,0,0)"
         y="-5.3325162"
         x="-1.6931961"
         ry="21.333395"
         rx="21.333391"
         height="96.000275"
         width="96.000275" />
      <rect
         style="fill:url(#linearGradient861);fill-opacity:1;fill-rule:evenodd;stroke:none;stroke-width:73.141922;stroke-linecap:round;stroke-linejoin:round;stroke-miterlimit:4;stroke-dasharray:none;stroke-opacity:1"
         id="rect853"
         transform="matrix(0,1,1,0,0,0)"
         y="0.00083250634"
         x="3.6401525"
         ry="16.000046"
         rx="16.00004"
         height="85.333572"
         width="85.333572" />
      <path
         style="fill:url(#linearGradient863);fill-opacity:1;fill-rule:evenodd;stroke:none;stroke-width:6.85703564px;stroke-linecap:butt;stroke-linejoin:miter;stroke-opacity:1"
         d="M 94.318359 37.880859 C 78.761629 45.629903 51.531958 48.351871 32 50.324219 L 32 84 C 32 84.781357 32.079424 85.542284 32.220703 86.28125 C 53.11818 77.78004 80.859027 65.704394 96 52 L 96 44 C 96 41.758413 95.379831 39.672271 94.318359 37.880859 z "
         transform="matrix(1.3333372,0,0,1.3333372,-42.665957,-39.026637)"
         id="path855" />
      <rect
         width="85.333572"
         height="85.333572"
         rx="16.00004"
         ry="16.000046"
         x="3.6401525"
         y="0.00083250634"
         transform="matrix(0,1,1,0,0,0)"
         id="rect868"
         style="fill:url(#linearGradient861);fill-opacity:1;fill-rule:evenodd;stroke:none;stroke-width:73.141922;stroke-linecap:round;stroke-linejoin:round;stroke-miterlimit:4;stroke-dasharray:none;stroke-opacity:1" />
    </g>
    <g
       transform="matrix(0.74999785,0,0,0.74999785,55.99938,53.269898)"
       id="g32319">
      <rect
         width="96.000275"
         height="96.000275"
         rx="3.628262"
         ry="4.219727"
         x="-1.6931961"
         y="-5.3325162"
         transform="matrix(0,1,1,0,0,0)"
         id="rect5489"
         style="opacity:1;fill:url(#linearGradient5501-5);fill-opacity:1;fill-rule:nonzero;stroke:none;stroke-width:18.2854805;stroke-linecap:round;stroke-linejoin:round;stroke-miterlimit:4;stroke-dasharray:none;stroke-dashoffset:4;stroke-opacity:1" />
      <rect
         width="85.333572"
         height="85.333572"
         rx="1.6879668"
         ry="2.0317206"
         x="3.6401525"
         y="0.00083250634"
         transform="matrix(0,1,1,0,0,0)"
         id="rect5491"
         style="fill:url(#linearGradient5503-3);fill-opacity:1;fill-rule:evenodd;stroke:none;stroke-width:73.141922;stroke-linecap:round;stroke-linejoin:round;stroke-miterlimit:4;stroke-dasharray:none;stroke-opacity:1" />
      <path
         sodipodi:nodetypes="ccccc"
         d="M 85.334421,30.306916 C 63.784753,49.811947 22.9514,66.916386 -5.3325039,78.307052 V 28.61388 C 21.745955,25.830647 63.732822,22.284089 85.334421,10.306916 Z"
         id="path5493"
         style="fill:url(#linearGradient5505-2);fill-opacity:1;fill-rule:evenodd;stroke:none;stroke-width:9.14274025px;stroke-linecap:butt;stroke-linejoin:miter;stroke-opacity:1"
         inkscape:connector-curvature="0" />
    </g>
  </g>
</svg>
